X:1
T:[ID 3-1]
T:[ID 3-1]
T:Bezeichnung standardisiert: Menuett Menuet No 5. Primo
T:Urheber unbekannt Erstbeleg: 1767 (Datum in der schriftlichen Quelle) Datum in der hier transkribierten schriftlichen Quelle: 1792
C:Urheber unbekannt
C:Erstbeleg: 1767 (Datum in der schriftlichen Quelle)
C:Datum in der hier transkribierten schriftlichen Quelle: 1792
%%score 1 2
L:1/8
M:3/4
K:G
V:1 treble nm="Primo"
V:2 treble nm="Secondo"
V:1
 d4 DE | .F2 .E2 .D2 | e4 AB | .c2 .B2 .A2 | (af)(fd) d2 | (af)(fd) d2 | ef g2 f2 | e6 :: e3 fef | %9
 e2 f2 g2 | f3 gfg | f2 g2 a2 | (af)(fd) d2 | affd d2 | egfedc | d6 :| %16
V:2
 !fermata!F4 DE | F2 E2 D2 | e4 AB | c2 B2 A2 | (fd)(dA) A2 | (fd)(dA) F2 | cd e2 d2 | c6 :: %8
 c3 dcd | c2 d2 e2 | d3 ede | d2 e2 f2 |"^O)" (fd)(dA) F2 |"^O)" (fd)(dA) F2 | GBAGFE | F6 :| %16

